src/assets/at.svg

<svg fill="none" height="24" viewBox="0 0 24 24" width="24" xmlns="http://www.w3.org/2000/svg" xmlns:xlink="http://www.w3.org/1999/xlink"><clipPath id="a"><path d="m0 0h24v24h-24z"/></clipPath><g clip-path="url(#a)" stroke="#07101b" stroke-linecap="round" stroke-linejoin="round" stroke-width="1.5"><path d="m12 16c2.2091 0 4-1.7909 4-4 0-2.20914-1.7909-4-4-4-2.20914 0-4 1.79086-4 4 0 2.2091 1.79086 4 4 4z"/><path d="m16 12v1.5c0 .6631.2634 1.299.7322 1.7678.4689.4688 1.1048.7322 1.7678.7322s1.2989-.2634 1.7678-.7322c.4688-.4688.7322-1.1047.7322-1.7678v-1.5c.0025-1.9339-.618-3.81713-1.7696-5.37078s-2.773-2.69504-4.624-3.25509-3.8332-.50898-5.65297.14566c-1.81972.65464-3.38019 1.87802-4.45022 3.48892-1.07004 1.61089-1.59274 3.52359-1.49066 5.45479s.8235 3.7782 2.0574 5.2673 2.91464 2.5412 4.79324 3.0003c1.87861.4592 3.85511.301 5.63681-.4511"/></g></svg>

<svg width="24" height="24" viewBox="0 0 24 24" fill="none" xmlns="http://www.w3.org/2000/svg">
<g clip-path="url(#clip0_253_30604)">
<path d="M12 16C14.2091 16 16 14.2091 16 12C16 9.79086 14.2091 8 12 8C9.79086 8 8 9.79086 8 12C8 14.2091 9.79086 16 12 16Z" stroke="#07101B" stroke-width="1.5" stroke-linecap="round" stroke-linejoin="round"/>
<path d="M16 12V13.5C16 14.1631 16.2634 14.799 16.7322 15.2678C17.2011 15.7366 17.837 16 18.5 16C19.163 16 19.7989 15.7366 20.2678 15.2678C20.7366 14.799 21 14.1631 21 13.5V12C21.0025 10.0661 20.382 8.18287 19.2304 6.62922C18.0788 5.07557 16.4574 3.93418 14.6064 3.37413C12.7554 2.81408 10.7732 2.86515 8.95343 3.51979C7.13371 4.17443 5.57324 5.39781 4.50321 7.00871C3.43317 8.6196 2.91047 10.5323 3.01255 12.4635C3.11463 14.3947 3.83605 16.2417 5.06995 17.7308C6.30385 19.2199 7.98459 20.272 9.86319 20.7311C11.7418 21.1903 13.7183 21.0321 15.5 20.28" stroke="#07101B" stroke-width="1.5" stroke-linecap="round" stroke-linejoin="round"/>
</g>
<defs>
<clipPath id="clip0_253_30604">
<rect width="24" height="24" fill="white"/>
</clipPath>
</defs>
</svg>
